icons/numix/32x32/mimetypes/application-vnd.oasis.opendocument.master-document.svg

<?xml version="1.0" encoding="UTF-8" standalone="no"?>
<svg
   xmlns:dc="http://purl.org/dc/elements/1.1/"
   xmlns:cc="http://creativecommons.org/ns#"
   xmlns:rdf="http://www.w3.org/1999/02/22-rdf-syntax-ns#"
   xmlns:svg="http://www.w3.org/2000/svg"
   xmlns="http://www.w3.org/2000/svg"
   xmlns:sodipodi="http://sodipodi.sourceforge.net/DTD/sodipodi-0.dtd"
   xmlns:inkscape="http://www.inkscape.org/namespaces/inkscape"
   width="32"
   height="32"
   viewBox="0 0 32 32"
   id="svg2"
   version="1.1"
   inkscape:version="0.48.5 r10040"
   sodipodi:docname="application-vnd.oasis.opendocument.master-document.svg">
  <metadata
     id="metadata34">
    <rdf:RDF>
      <cc:Work
         rdf:about="">
        <dc:format>image/svg+xml</dc:format>
        <dc:type
           rdf:resource="http://purl.org/dc/dcmitype/StillImage" />
      </cc:Work>
    </rdf:RDF>
  </metadata>
  <defs
     id="defs32" />
  <sodipodi:namedview
     pagecolor="#ffffff"
     bordercolor="#666666"
     borderopacity="1"
     objecttolerance="10"
     gridtolerance="10"
     guidetolerance="10"
     inkscape:pageopacity="0"
     inkscape:pageshadow="2"
     inkscape:window-width="1280"
     inkscape:window-height="970"
     id="namedview30"
     showgrid="true"
     inkscape:zoom="10.429825"
     inkscape:cx="16.72869"
     inkscape:cy="17.405613"
     inkscape:window-x="0"
     inkscape:window-y="0"
     inkscape:window-maximized="1"
     inkscape:current-layer="svg2">
    <inkscape:grid
       type="xygrid"
       id="grid3033" />
  </sodipodi:namedview>
  <path
     style="fill:#37669f;fill-opacity:1"
     d="M 5.335888,2.976e-4 C 4.648414,3.125e-4 4,0.67678843 4,1.3940318 L 4,30.606268 C 4,31.282757 4.687474,32 5.335888,32 l 21.327332,0 c 0.648414,0 1.335888,-0.717243 1.335888,-1.393732 L 28,9.0000003 l -9,-9 z"
     id="path4-1"
     inkscape:connector-curvature="0"
     sodipodi:nodetypes="ssssssccs" />
  <path
     style="fill:#000000;fill-opacity:0.19599998"
     d="M 21,9.0000003 28,16 28,9.0000003 z"
     id="path6-4"
     inkscape:connector-curvature="0"
     sodipodi:nodetypes="cccc" />
  <path
     style="fill:#ffffff;fill-opacity:0.39200003"
     d="m 19.000306,2.976e-4 8.991594,8.9997027 -7.613262,0 c -0.672951,0 -1.378332,-0.7134896 -1.378332,-1.3864402 z"
     id="path8-6"
     inkscape:connector-curvature="0"
     sodipodi:nodetypes="ccssc" />
  <path
     style="fill:#ffffff"
     sodipodi:nodetypes="ccccccc"
     inkscape:connector-curvature="0"
     id="path12"
     d="M 10.998232,10.998813 11.000016,15 12,15 l 0,-3 3,0 0,-1 z" />
  <path
     style="fill:#ffffff"
     d="M 21.001769,10.998813 20.999984,15 20,15 l 0,-3 -2.999999,0 0,-1 z"
     id="path3035"
     inkscape:connector-curvature="0"
     sodipodi:nodetypes="ccccccc" />
  <path
     style="fill:#000000;fill-opacity:0.19599998"
     d="m 4,24 0,6.667969 C 4,31.316407 4.6875,32 5.332031,32 l 21.335937,0 C 27.3125,32 28,31.316407 28,30.667969 L 28,24 z"
     id="path20"
     inkscape:connector-curvature="0" />
  <g
     style="fill:#ffffff"
     id="g22"
     transform="matrix(1.0723861,0,0,1.0723861,-1.1945339,-1.0584795)">
    <path
       d="m 10.484375,27.332031 c 0,0.25 0.0078,0.484375 0.02734,0.703125 0.02344,0.214844 0.06641,0.402344 0.128906,0.5625 0.06641,0.160156 0.15625,0.285156 0.273437,0.378906 0.117188,0.09375 0.273438,0.140626 0.46875,0.140626 0.191407,0 0.34375,-0.04688 0.460938,-0.140626 0.121094,-0.09375 0.214844,-0.21875 0.277344,-0.378906 0.06641,-0.167968 0.109375,-0.355468 0.128906,-0.570312 0.02344,-0.214844 0.03516,-0.445313 0.03516,-0.695313 0,-0.246093 -0.01172,-0.476562 -0.03516,-0.691406 -0.01953,-0.222656 -0.0625,-0.410156 -0.128906,-0.570313 -0.0625,-0.160156 -0.152344,-0.285156 -0.269532,-0.378906 -0.113281,-0.09375 -0.273437,-0.140625 -0.46875,-0.140625 -0.195312,0 -0.351562,0.04687 -0.46875,0.140625 -0.117187,0.09375 -0.207031,0.222656 -0.273437,0.386719 -0.0625,0.160156 -0.105469,0.347656 -0.128906,0.5625 -0.01953,0.214844 -0.02734,0.445313 -0.02734,0.691406 m -1.152344,0 c 0,-0.878906 0.183594,-1.542969 0.542969,-1.988281 0.363281,-0.453125 0.863281,-0.675781 1.507812,-0.675781 0.667969,0 1.179688,0.222656 1.527344,0.675781 0.347656,0.445312 0.523438,1.109375 0.523438,1.988281 0,0.882813 -0.175782,1.546875 -0.53125,2 C 12.546875,29.777344 12.042969,30 11.394531,30 c -0.667969,0 -1.179687,-0.222656 -1.535156,-0.667969 -0.351563,-0.453125 -0.527344,-1.117187 -0.527344,-2"
       id="path24"
       inkscape:connector-curvature="0" />
    <path
       d="m 15.308594,29.066406 c 0.03125,0.0078 0.06641,0.0078 0.101562,0.0078 0.03906,0 0.07031,0 0.101563,0 0.257812,0 0.472656,-0.04297 0.644531,-0.132813 0.179688,-0.08594 0.320312,-0.207031 0.421875,-0.363281 0.113281,-0.152344 0.1875,-0.332031 0.230469,-0.542969 0.05078,-0.214844 0.07422,-0.449218 0.07422,-0.703125 0,-0.21875 -0.01953,-0.433593 -0.05469,-0.644531 -0.03906,-0.207031 -0.101563,-0.390625 -0.195313,-0.550781 -0.08984,-0.160157 -0.214843,-0.285157 -0.375,-0.378907 -0.160156,-0.101562 -0.363281,-0.148437 -0.617187,-0.148437 -0.04687,0 -0.105469,0 -0.164063,0.0078 -0.0625,0 -0.117187,0.0039 -0.167968,0.01562 l 0,3.433594 m 2.722656,-1.734375 c 0,0.476563 -0.06641,0.878907 -0.203125,1.214844 -0.128906,0.332031 -0.308594,0.601563 -0.539063,0.808594 -0.234374,0.210937 -0.511718,0.363281 -0.839843,0.460937 -0.316407,0.09375 -0.671875,0.140625 -1.054688,0.140625 -0.203125,0 -0.402343,-0.0078 -0.597656,-0.03125 -0.191406,-0.01563 -0.398437,-0.04687 -0.617187,-0.08984 l 0,-4.988282 c 0.257812,-0.05078 0.5,-0.08203 0.726562,-0.09766 0.226562,-0.01563 0.4375,-0.02734 0.632812,-0.02734 0.375,0 0.714844,0.05078 1.023438,0.152344 0.3125,0.09766 0.574219,0.253906 0.789062,0.46875 0.214844,0.210938 0.378907,0.480469 0.496094,0.808594 0.125,0.324218 0.183594,0.71875 0.183594,1.179687"
       id="path26"
       inkscape:connector-curvature="0" />
    <path
       d="m 19.761719,24.78125 c 0.04297,0.117188 0.09375,0.265625 0.15625,0.445312 0.06641,0.183594 0.136719,0.378907 0.210937,0.585938 0.07422,0.210938 0.148438,0.421875 0.21875,0.636719 0.07422,0.214843 0.144532,0.414062 0.214844,0.59375 0.07031,-0.203125 0.148438,-0.410157 0.226562,-0.625 0.08203,-0.222657 0.15625,-0.429688 0.230469,-0.628907 0.07422,-0.203124 0.140625,-0.394531 0.203125,-0.570312 0.0625,-0.175781 0.117188,-0.320312 0.164063,-0.4375 l 0.941406,0 c 0.04297,0.445312 0.08203,0.882812 0.117187,1.304688 0.04297,0.425781 0.07813,0.84375 0.101563,1.265624 0.03125,0.410157 0.05469,0.828126 0.07422,1.253907 0.01953,0.417969 0.03516,0.847656 0.04687,1.289062 l -1.039063,0 0.05469,-3.972656 -0.699219,2.164063 -0.828125,0 -0.671875,-2.164063 0.04687,3.972656 -1.039062,0 c 0.01953,-0.421875 0.03516,-0.855469 0.05469,-1.304687 0.02344,-0.453125 0.05078,-0.902344 0.07422,-1.347656 0.02344,-0.445313 0.05078,-0.878907 0.08203,-1.296876 0.03516,-0.417968 0.07813,-0.804687 0.121094,-1.164062 l 0.9375,0"
       id="path28"
       inkscape:connector-curvature="0" />
  </g>
  <path
     d="m 21.001767,21.001174 -0.0018,-4.001187 -0.999983,0 0,3 -3,0 0,1 z"
     id="path3046"
     inkscape:connector-curvature="0"
     sodipodi:nodetypes="ccccccc"
     style="fill:#ffffff" />
  <path
     sodipodi:nodetypes="ccccccc"
     inkscape:connector-curvature="0"
     id="path3048"
     d="m 10.998215,21.001188 0.0018,-4.001187 0.999985,0 L 12,20 l 2.999998,0 0,1 z"
     style="fill:#ffffff" />
</svg>

<svg width="32" xmlns="http://www.w3.org/2000/svg" height="32" viewBox="0 0 32 32" xmlns:xlink="http://www.w3.org/1999/xlink">
<path style="fill:#37669f" d="M 5.332031 0.667969 C 4.648438 0.667969 4 1.3125 4 2 L 4 30 C 4 30.648438 4.6875 31.332031 5.332031 31.332031 L 26.667969 31.332031 C 27.3125 31.332031 28 30.648438 28 30 L 28 9.332031 L 19.332031 0.667969 Z "/>
<path style="fill:#000;fill-opacity:.196" d="M 19.332031 8 L 19.375 8.042969 L 19.480469 8 Z M 20.667969 9.332031 L 28 16.667969 L 28 9.332031 Z "/>
<path style="fill:#fff;fill-opacity:.392" d="M 19.332031 0.667969 L 28 9.332031 L 20.667969 9.332031 C 20.019531 9.332031 19.332031 8.648438 19.332031 8 Z "/>
<g style="fill:#fff">
<path d="M 10.667969 11.351562 C 10.667969 12.554688 10.667969 13.464844 10.667969 14.667969 C 10.667969 15.332031 10.667969 16 11.332031 16 C 12 16 12 15.332031 12 14.667969 L 12 12.667969 L 14 12.667969 C 14.667969 12.667969 15.332031 12.667969 15.332031 12 C 15.332031 11.332031 14.667969 11.332031 14 11.332031 C 12.667969 11.339844 12 11.351562 10.667969 11.351562 Z "/>
<path d="M 21.332031 11.351562 C 21.332031 12.554688 21.332031 13.464844 21.332031 14.667969 C 21.332031 15.332031 21.332031 16 20.667969 16 C 20 16 20 15.332031 20 14.667969 L 20 12.667969 L 18 12.667969 C 17.332031 12.667969 16.667969 12.667969 16.667969 12 C 16.667969 11.332031 17.332031 11.332031 18 11.332031 C 19.332031 11.339844 20 11.351562 21.332031 11.351562 Z "/>
<path d="M 21.316406 22 C 20.113281 22 19.203125 22 18 22 C 17.332031 22 16.667969 22 16.667969 21.332031 C 16.667969 20.667969 17.332031 20.667969 18 20.667969 L 20 20.667969 L 20 18.667969 C 20 18 20 17.332031 20.667969 17.332031 C 21.332031 17.332031 21.332031 18 21.332031 18.667969 C 21.324219 20 21.316406 20.667969 21.316406 22 Z "/>
<path d="M 10.683594 22 C 11.886719 22 12.796875 22 14 22 C 14.667969 22 15.332031 22 15.332031 21.332031 C 15.332031 20.667969 14.667969 20.667969 14 20.667969 L 12 20.667969 L 12 18.667969 C 12 18 12 17.332031 11.332031 17.332031 C 10.667969 17.332031 10.667969 18 10.667969 18.667969 C 10.675781 20 10.683594 20.667969 10.683594 22 Z "/>
</g>
<path style="fill:#000;fill-opacity:.196" d="M 4 23.332031 L 4 30 C 4 30.648438 4.6875 31.332031 5.332031 31.332031 L 26.667969 31.332031 C 27.3125 31.332031 28 30.648438 28 30 L 28 23.332031 Z "/>
<g style="fill:#fff">
<path d="M 10.484375 27.332031 C 10.484375 27.582031 10.492188 27.816406 10.511719 28.035156 C 10.535156 28.25 10.578125 28.4375 10.640625 28.597656 C 10.707031 28.757812 10.796875 28.882812 10.914062 28.976562 C 11.03125 29.070312 11.1875 29.117188 11.382812 29.117188 C 11.574219 29.117188 11.726562 29.070312 11.84375 28.976562 C 11.964844 28.882812 12.058594 28.757812 12.121094 28.597656 C 12.1875 28.429688 12.230469 28.242188 12.25 28.027344 C 12.273438 27.8125 12.285156 27.582031 12.285156 27.332031 C 12.285156 27.085938 12.273438 26.855469 12.25 26.640625 C 12.230469 26.417969 12.1875 26.230469 12.121094 26.070312 C 12.058594 25.910156 11.96875 25.785156 11.851562 25.691406 C 11.738281 25.597656 11.578125 25.550781 11.382812 25.550781 C 11.1875 25.550781 11.03125 25.597656 10.914062 25.691406 C 10.796875 25.785156 10.707031 25.914062 10.640625 26.078125 C 10.578125 26.238281 10.535156 26.425781 10.511719 26.640625 C 10.492188 26.855469 10.484375 27.085938 10.484375 27.332031 M 9.332031 27.332031 C 9.332031 26.453125 9.515625 25.789062 9.875 25.34375 C 10.238281 24.890625 10.738281 24.667969 11.382812 24.667969 C 12.050781 24.667969 12.5625 24.890625 12.910156 25.34375 C 13.257812 25.789062 13.433594 26.453125 13.433594 27.332031 C 13.433594 28.214844 13.257812 28.878906 12.902344 29.332031 C 12.546875 29.777344 12.042969 30 11.394531 30 C 10.726562 30 10.214844 29.777344 9.859375 29.332031 C 9.507812 28.878906 9.332031 28.214844 9.332031 27.332031 "/>
<path d="M 15.308594 29.066406 C 15.339844 29.074219 15.375 29.074219 15.410156 29.074219 C 15.449219 29.074219 15.480469 29.074219 15.511719 29.074219 C 15.769531 29.074219 15.984375 29.03125 16.15625 28.941406 C 16.335938 28.855469 16.476562 28.734375 16.578125 28.578125 C 16.691406 28.425781 16.765625 28.246094 16.808594 28.035156 C 16.859375 27.820312 16.882812 27.585938 16.882812 27.332031 C 16.882812 27.113281 16.863281 26.898438 16.828125 26.6875 C 16.789062 26.480469 16.726562 26.296875 16.632812 26.136719 C 16.542969 25.976562 16.417969 25.851562 16.257812 25.757812 C 16.097656 25.65625 15.894531 25.609375 15.640625 25.609375 C 15.59375 25.609375 15.535156 25.609375 15.476562 25.617188 C 15.414062 25.617188 15.359375 25.621094 15.308594 25.632812 L 15.308594 29.066406 M 18.03125 27.332031 C 18.03125 27.808594 17.964844 28.210938 17.828125 28.546875 C 17.699219 28.878906 17.519531 29.148438 17.289062 29.355469 C 17.054688 29.566406 16.777344 29.71875 16.449219 29.816406 C 16.132812 29.910156 15.777344 29.957031 15.394531 29.957031 C 15.191406 29.957031 14.992188 29.949219 14.796875 29.925781 C 14.605469 29.910156 14.398438 29.878906 14.179688 29.835938 L 14.179688 24.847656 C 14.4375 24.796875 14.679688 24.765625 14.90625 24.75 C 15.132812 24.734375 15.34375 24.722656 15.539062 24.722656 C 15.914062 24.722656 16.253906 24.773438 16.5625 24.875 C 16.875 24.972656 17.136719 25.128906 17.351562 25.34375 C 17.566406 25.554688 17.730469 25.824219 17.847656 26.152344 C 17.972656 26.476562 18.03125 26.871094 18.03125 27.332031 "/>
<path d="M 19.761719 24.78125 C 19.804688 24.898438 19.855469 25.046875 19.917969 25.226562 C 19.984375 25.410156 20.054688 25.605469 20.128906 25.8125 C 20.203125 26.023438 20.277344 26.234375 20.347656 26.449219 C 20.421875 26.664062 20.492188 26.863281 20.5625 27.042969 C 20.632812 26.839844 20.710938 26.632812 20.789062 26.417969 C 20.871094 26.195312 20.945312 25.988281 21.019531 25.789062 C 21.09375 25.585938 21.160156 25.394531 21.222656 25.21875 C 21.285156 25.042969 21.339844 24.898438 21.386719 24.78125 L 22.328125 24.78125 C 22.371094 25.226562 22.410156 25.664062 22.445312 26.085938 C 22.488281 26.511719 22.523438 26.929688 22.546875 27.351562 C 22.578125 27.761719 22.601562 28.179688 22.621094 28.605469 C 22.640625 29.023438 22.65625 29.453125 22.667969 29.894531 L 21.628906 29.894531 L 21.683594 25.921875 L 20.984375 28.085938 L 20.15625 28.085938 L 19.484375 25.921875 L 19.53125 29.894531 L 18.492188 29.894531 C 18.511719 29.472656 18.527344 29.039062 18.546875 28.589844 C 18.570312 28.136719 18.597656 27.6875 18.621094 27.242188 C 18.644531 26.796875 18.671875 26.363281 18.703125 25.945312 C 18.738281 25.527344 18.78125 25.140625 18.824219 24.78125 L 19.761719 24.78125 "/>
</g>
</svg>
